img/wandb.svg

<svg data-name="Layer 1" xmlns="http://www.w3.org/2000/svg" viewBox="0 0 361.97 132.88"><path d="M228.19 47.48c-3.67 0-5.12.57-6.13 4L210.74 90h-9.45l-7.57-24.8h-.14L185.21 90h-9.59L163.8 49.64c-.44-1.44-1.3-2.16-5.2-2.16v-5.34h20.85v5.34h-3c-1.59 0-2.24.93-2.24 1.87a12.21 12.21 0 0 0 .65 2.6l7 26h.14l8.36-24.38-1.22-3.38a3.44 3.44 0 0 0-3.61-2.67h-2.38v-5.38h21.56v5.34h-3.17c-1.59 0-2.67.5-2.67 1.44a10.87 10.87 0 0 0 .58 2.45l7.72 26h.14l7.21-25.52a8.12 8.12 0 0 0 .43-2.38c0-1.3-.86-2-3.38-2h-3.18v-5.33h19.83zm28.13 12.76h23.08v5.34h-1.59c-4.18 0-5.84.79-7.14 2.67l-9.3 13.12a6.41 6.41 0 0 0 5.41 2.74c6 0 7.21-5.77 7.21-10.46h5.48c0 10-2.24 17.74-14 17.74a18.22 18.22 0 0 1-11.32-3.75 27.23 27.23 0 0 1-13.49 3.75c-11.68 0-16.58-6.77-16.58-14.13 0-7.64 2.3-10.38 12.25-15.72-1.29-1.66-2.09-5.48-2.09-8.22 0-7.65 5-12.62 12.84-12.62 5.62 0 10.24 3.89 10.24 9.66s-4.54 10-9.3 12.77c1.44 3.46 6.7 11.1 9.44 13.55 1.66-1.66 5.41-6.41 5.41-8.51 0-1.73-.86-2.59-3.67-2.59h-2.89zm-13.77 24.38a13.51 13.51 0 0 0 7.06-1.62 110.32 110.32 0 0 1-10.52-15.65c-2.75 1.8-4.91 4-4.91 7.93 0 5.15 3.46 9.34 8.37 9.34zm8.29-34c0-2.74-1.66-4.33-4.4-4.33s-4.47 2-4.47 4.76c0 2.38 1.44 4.76 2.67 6.71 2.95-1.12 6.2-3.65 6.2-7.11zm31.16 34h5.12c2.24 0 3-.73 3-2.6V50.07c0-1.87-.72-2.59-3-2.59H282v-5.34h26.76c14.13 0 18.67 4.4 18.67 11.83 0 6.34-4.25 9.59-10.09 10.53v.14c6 1.3 11.75 3.82 11.75 12 0 7.79-4.18 13.27-16.15 13.27H282zm18.18-22.14h6.92c5.7 0 10.24-1 10.24-7.36 0-6.63-4.54-7.64-10.24-7.64h-6.92zm0 22.14h8.07c5.77 0 10.75-1.09 10.75-8.37s-5-8.44-10.75-8.44h-8.07z" fill="#fff"/><path fill="#f9c20a" d="M0 0h132.88v132.88H0z"/><path d="M23.35 25a5.12 5.12 0 1 1-5.11 5.12A5.1 5.1 0 0 1 23.35 25zm0 12.11a5.12 5.12 0 1 1-5.11 5.12 5.1 5.1 0 0 1 5.11-5.12zm0 12.13a5.12 5.12 0 1 1-5.11 5.12 5.1 5.1 0 0 1 5.11-5.12zm0 36.39a5.11 5.11 0 1 1-5.11 5.12 5.09 5.09 0 0 1 5.11-5.12zm0-12.05a5.11 5.11 0 1 1-5.11 5.12 5.09 5.09 0 0 1 5.11-5.12zm0 24.18a5.11 5.11 0 1 1-5.11 5.12 5.09 5.09 0 0 1 5.11-5.12zm21.54-60.59a5.11 5.11 0 1 1-5.12 5.12 5.1 5.1 0 0 1 5.12-5.12zm0 12.07a5.12 5.12 0 1 1-5.12 5.12 5.1 5.1 0 0 1 5.12-5.12zm0 60.65a5.11 5.11 0 1 1-5.12 5.11 5.1 5.1 0 0 1 5.12-5.11zM66.42 25a5.11 5.11 0 1 1-5.12 5.12A5.09 5.09 0 0 1 66.42 25zm0 12.17a5.11 5.11 0 1 1-5.12 5.12 5.1 5.1 0 0 1 5.12-5.12zm0 24.26a5.12 5.12 0 1 1-5.12 5.12 5.1 5.1 0 0 1 5.12-5.12zm.02 12.15a5.11 5.11 0 1 1-5.12 5.12 5.09 5.09 0 0 1 5.12-5.12zm-.02 12.13a5.11 5.11 0 1 1-5.12 5.12 5.09 5.09 0 0 1 5.12-5.12zM88 37.17a5.11 5.11 0 1 1-5.12 5.12A5.1 5.1 0 0 1 88 37.17zm0 12.13a5.12 5.12 0 1 1-5.12 5.12A5.1 5.1 0 0 1 88 49.3zm0 36.39a5.11 5.11 0 1 1-5.12 5.12A5.09 5.09 0 0 1 88 85.69zM109.51 25a5.11 5.11 0 1 1-5.12 5.12 5.09 5.09 0 0 1 5.12-5.12zm.02 12.17a5.11 5.11 0 1 1-5.12 5.12 5.1 5.1 0 0 1 5.12-5.12zm-.02 48.54a5.11 5.11 0 1 1-5.12 5.12 5.09 5.09 0 0 1 5.12-5.12zM26.44 18a3 3 0 1 0-3 3 3 3 0 0 0 3-3zm-.06 48.43a3 3 0 1 0-3 3 3 3 0 0 0 3-3zM44.9 27.14a3 3 0 1 0 3 3 3 3 0 0 0-3-3zm0 36.29a3 3 0 1 0 3 3 3 3 0 0 0-3-3zm0 12.17a3 3 0 1 0 3 3 3 3 0 0 0-3-3zm-.06 12.13a3 3 0 1 0 3 3 3 3 0 0 0-3-3zm.06 12.13a3 3 0 1 0 3 3 3 3 0 0 0-3-3zM66.43 15a3 3 0 1 0 3 3 3 3 0 0 0-3-3zm.02 36.4a3 3 0 1 0 3 3 3 3 0 0 0-3-3zm-.02 48.53a3 3 0 1 0 3 3 3 3 0 0 0-3-3zM88 27.12a3 3 0 1 0 3 3 3 3 0 0 0-3-3zm0 36.4a3 3 0 1 0 3 3 3 3 0 0 0-3-3zm0 12.13a3 3 0 1 0 3 3 3 3 0 0 0-3-3zm0 24.28a3 3 0 1 0 3 3 3 3 0 0 0-3-3zm0 12.14a3 3 0 1 0 3 3 3 3 0 0 0-3-3zM109.52 15a3 3 0 1 0 3 3 3 3 0 0 0-3-3zm0 36.4a3 3 0 1 0 3 3 3 3 0 0 0-3-3zm0 12.12a3 3 0 1 0 3 3 3 3 0 0 0-3-3zm0 12.13a3 3 0 1 0 3 3 3 3 0 0 0-3-3zm0 24.28a3 3 0 1 0 3 3 3 3 0 0 0-3-3z" fill="#5f6369"/></svg>

<svg id="Layer_1" data-name="Layer 1" xmlns="http://www.w3.org/2000/svg" viewBox="0 0 361.97 132.88"><defs><style>.cls-1{fill:#fff;}.cls-2{fill:#f9c20a;}.cls-3{fill:#5f6369;}</style></defs><title>WandB-RGB-Brandmark-Artboard 6 copy 2</title><path class="cls-1" d="M228.19,47.48c-3.67,0-5.12.57-6.13,4L210.74,90h-9.45l-7.57-24.8h-.14L185.21,90h-9.59L163.8,49.64c-.44-1.44-1.3-2.16-5.2-2.16V42.14h20.85v5.34h-3c-1.59,0-2.24.93-2.24,1.87a12.21,12.21,0,0,0,.65,2.6l7,26H182l8.36-24.38-1.22-3.38a3.44,3.44,0,0,0-3.61-2.67h-2.38V42.14h21.56v5.34h-3.17c-1.59,0-2.67.5-2.67,1.44a10.87,10.87,0,0,0,.58,2.45l7.72,26h.14l7.21-25.52a8.12,8.12,0,0,0,.43-2.38c0-1.3-.86-2-3.38-2h-3.18V42.14h19.83Z"/><path class="cls-1" d="M256.32,60.24H279.4v5.34h-1.59c-4.18,0-5.84.79-7.14,2.67l-9.3,13.12a6.41,6.41,0,0,0,5.41,2.74c6,0,7.21-5.77,7.21-10.46h5.48c0,10-2.24,17.74-14,17.74a18.22,18.22,0,0,1-11.32-3.75,27.23,27.23,0,0,1-13.49,3.75c-11.68,0-16.58-6.77-16.58-14.13,0-7.64,2.3-10.38,12.25-15.72-1.29-1.66-2.09-5.48-2.09-8.22,0-7.65,5-12.62,12.84-12.62,5.62,0,10.24,3.89,10.24,9.66s-4.54,10-9.3,12.77c1.44,3.46,6.7,11.1,9.44,13.55,1.66-1.66,5.41-6.41,5.41-8.51,0-1.73-.86-2.59-3.67-2.59h-2.89ZM242.55,84.62A13.51,13.51,0,0,0,249.61,83a110.32,110.32,0,0,1-10.52-15.65c-2.75,1.8-4.91,4-4.91,7.93C234.18,80.43,237.64,84.62,242.55,84.62Zm8.29-34c0-2.74-1.66-4.33-4.4-4.33s-4.47,2-4.47,4.76c0,2.38,1.44,4.76,2.67,6.71C247.59,56.64,250.84,54.11,250.84,50.65Z"/><path class="cls-1" d="M282,84.62h5.12c2.24,0,3-.73,3-2.6V50.07c0-1.87-.72-2.59-3-2.59H282V42.14h26.76c14.13,0,18.67,4.4,18.67,11.83,0,6.34-4.25,9.59-10.09,10.53v.14c6,1.3,11.75,3.82,11.75,12,0,7.79-4.18,13.27-16.15,13.27H282Zm18.18-22.14h6.92c5.7,0,10.24-1,10.24-7.36,0-6.63-4.54-7.64-10.24-7.64h-6.92Zm0,22.14h8.07c5.77,0,10.75-1.09,10.75-8.37s-5-8.44-10.75-8.44h-8.07Z"/><rect class="cls-2" width="132.88" height="132.88"/><path class="cls-3" d="M23.35,25a5.12,5.12,0,1,1-5.11,5.12A5.1,5.1,0,0,1,23.35,25Z"/><path class="cls-3" d="M23.35,37.11a5.12,5.12,0,1,1-5.11,5.12A5.1,5.1,0,0,1,23.35,37.11Z"/><path class="cls-3" d="M23.35,49.24a5.12,5.12,0,1,1-5.11,5.12A5.1,5.1,0,0,1,23.35,49.24Z"/><path class="cls-3" d="M23.35,85.63a5.11,5.11,0,1,1-5.11,5.12A5.09,5.09,0,0,1,23.35,85.63Z"/><path class="cls-3" d="M23.35,73.58a5.11,5.11,0,1,1-5.11,5.12A5.09,5.09,0,0,1,23.35,73.58Z"/><path class="cls-3" d="M23.35,97.76a5.11,5.11,0,1,1-5.11,5.12A5.09,5.09,0,0,1,23.35,97.76Z"/><path class="cls-3" d="M44.89,37.17a5.11,5.11,0,1,1-5.12,5.12A5.1,5.1,0,0,1,44.89,37.17Z"/><path class="cls-3" d="M44.89,49.24a5.12,5.12,0,1,1-5.12,5.12A5.1,5.1,0,0,1,44.89,49.24Z"/><path class="cls-3" d="M44.89,109.89A5.11,5.11,0,1,1,39.77,115,5.1,5.1,0,0,1,44.89,109.89Z"/><path class="cls-3" d="M66.42,25a5.11,5.11,0,1,1-5.12,5.12A5.09,5.09,0,0,1,66.42,25Z"/><path class="cls-3" d="M66.42,37.17a5.11,5.11,0,1,1-5.12,5.12A5.1,5.1,0,0,1,66.42,37.17Z"/><path class="cls-3" d="M66.42,61.43a5.12,5.12,0,1,1-5.12,5.12A5.1,5.1,0,0,1,66.42,61.43Z"/><path class="cls-3" d="M66.44,73.58a5.11,5.11,0,1,1-5.12,5.12A5.09,5.09,0,0,1,66.44,73.58Z"/><path class="cls-3" d="M66.42,85.71a5.11,5.11,0,1,1-5.12,5.12A5.09,5.09,0,0,1,66.42,85.71Z"/><path class="cls-3" d="M88,37.17a5.11,5.11,0,1,1-5.12,5.12A5.1,5.1,0,0,1,88,37.17Z"/><path class="cls-3" d="M88,49.3a5.12,5.12,0,1,1-5.12,5.12A5.1,5.1,0,0,1,88,49.3Z"/><path class="cls-3" d="M88,85.69a5.11,5.11,0,1,1-5.12,5.12A5.09,5.09,0,0,1,88,85.69Z"/><path class="cls-3" d="M109.51,25a5.11,5.11,0,1,1-5.12,5.12A5.09,5.09,0,0,1,109.51,25Z"/><path class="cls-3" d="M109.53,37.17a5.11,5.11,0,1,1-5.12,5.12A5.1,5.1,0,0,1,109.53,37.17Z"/><path class="cls-3" d="M109.51,85.71a5.11,5.11,0,1,1-5.12,5.12A5.09,5.09,0,0,1,109.51,85.71Z"/><path class="cls-3" d="M26.44,18a3,3,0,1,0-3,3A3,3,0,0,0,26.44,18Z"/><path class="cls-3" d="M26.38,66.43a3,3,0,1,0-3,3A3,3,0,0,0,26.38,66.43Z"/><path class="cls-3" d="M44.9,27.14a3,3,0,1,0,3,3A3,3,0,0,0,44.9,27.14Z"/><path class="cls-3" d="M44.9,63.43a3,3,0,1,0,3,3A3,3,0,0,0,44.9,63.43Z"/><path class="cls-3" d="M44.9,75.6a3,3,0,1,0,3,3A3,3,0,0,0,44.9,75.6Z"/><path class="cls-3" d="M44.84,87.73a3,3,0,1,0,3,3A3,3,0,0,0,44.84,87.73Z"/><path class="cls-3" d="M44.9,99.86a3,3,0,1,0,3,3A3,3,0,0,0,44.9,99.86Z"/><path class="cls-3" d="M66.43,15a3,3,0,1,0,3,3A3,3,0,0,0,66.43,15Z"/><path class="cls-3" d="M66.45,51.4a3,3,0,1,0,3,3A3,3,0,0,0,66.45,51.4Z"/><path class="cls-3" d="M66.43,99.93a3,3,0,1,0,3,3A3,3,0,0,0,66.43,99.93Z"/><path class="cls-3" d="M88,27.12a3,3,0,1,0,3,3A3,3,0,0,0,88,27.12Z"/><path class="cls-3" d="M88,63.52a3,3,0,1,0,3,3A3,3,0,0,0,88,63.52Z"/><path class="cls-3" d="M88,75.65a3,3,0,1,0,3,3A3,3,0,0,0,88,75.65Z"/><path class="cls-3" d="M88,99.93a3,3,0,1,0,3,3A3,3,0,0,0,88,99.93Z"/><path class="cls-3" d="M88,112.07a3,3,0,1,0,3,3A3,3,0,0,0,88,112.07Z"/><path class="cls-3" d="M109.52,15a3,3,0,1,0,3,3A3,3,0,0,0,109.52,15Z"/><path class="cls-3" d="M109.52,51.4a3,3,0,1,0,3,3A3,3,0,0,0,109.52,51.4Z"/><path class="cls-3" d="M109.52,63.52a3,3,0,1,0,3,3A3,3,0,0,0,109.52,63.52Z"/><path class="cls-3" d="M109.52,75.65a3,3,0,1,0,3,3A3,3,0,0,0,109.52,75.65Z"/><path class="cls-3" d="M109.52,99.93a3,3,0,1,0,3,3A3,3,0,0,0,109.52,99.93Z"/></svg>
